X:1
T:Title
%%score { ( 1 3 ) | ( 2 4 5 ) }
L:1/8
Q:1/4=112
M:4/4
K:Eb
V:1 treble nm="Grand Piano"
V:3 treble 
V:2 bass 
V:4 bass 
V:5 bass 
V:1
 [GB]2 [Ac]2 [EG]2 [DF]2 | E4 G4 | B2 B2 B2 B2 | B6[K:bass] z2 | B2 c2 G2 [DF]2 | E4 G4 | %6
w: Haldor~Lillenas * * *||||||
 F2 F2 G2 [CE=A]2 | B6 z2 | B2 B2 B2 [B,AB]2 | [GB]4 z2 F2 | [DAc]2 [DAc]2 [DAc]2 [DAc]2 | %11
w: |||||
 [Ec]2- [EGc]2 .[B,G]2- .[B,EG]2 | [Ge]2 [Ge]2 [Gd]2 [Gc]2 | [GB]4 A4 | G2 G2 F2 E2 | B8 | %16
w: |||||
 [B,GB]2 [EGB]2 [DAB]2 [DAB]2 | [GB]4 z4 | c2 z2 z4 | c4 E2 z2 | [Ge]2 [Ae]2 [Gd]2 [CGc]2 | %21
w: |||||
 [_DGB]2 [D=EG]2 [CEA]2 [B,EG]2 | [=A,EG]4 [_A,DF]4 | [G,E]6 z2 |] %24
w: |||
V:2
 [E,E]2 [E,E]2 [E,B,]2 [B,,A,]2 | [E,G,]4 [E,B,E]4 | [E,G,E]2 [F,A,D]2 [G,B,E]2 [F,A,D]2 | %3
 [G,E]6 z2 | [E,G,E]2 [E,A,E]2 [E,B,E]2 [B,,A,]2 | [E,G,]4 [E,B,E]4 | %6
 [F,B,D]2 [F,B,D]2 [F,=A,E]2 [F,,F,]2 | z2 G,2 A,2 z2 | [E,G,E]2 [E,G,E]2 [F,A,D]2 B,,2 | %9
 E,2 z F [B,D]2- [B,,B,D]2 | F,2 B,,2 F,2 B,,2 | %11
 E,2 z[K:treble] B[K:bass] E,2 (3z[K:treble] G-[GB] | [C,C]2 [C,C]2 [D,=B,]2 [E,C]2 | %13
 [=E,_D]4 [F,CF]4 | [G,C=E]2 [G,CE]2 [A,C_E]2 [=A,C]2 | [B,D]2 [G,B,]2 B,2- [B,,B,]2 | %16
 E,2 E,2 F,2 B,,2 | z2 z F [B,D]2- [B,,B,D]2 | .[F,B,D]2 z G F,2 B,,2 | %19
 E,2 z[K:treble] B[K:bass] E,2 (3z[K:treble] G-[GB] | [C,C]2 [C,C]2 [D,=B,]2 E,2 | %21
 =E,2 E,2 C,2 C,2 | F,4 B,,4 | E,6 z2 |] %24
V:3
 x8 | x8 | x8 | z2[K:bass] B,,2 E,2 z2 | x8 | x8 | x8 | [B,D]2 E2 D2 z2 | x8 | %9
 B,3- [B,A] F2 (3z GA | x8 | G2 z2 E2 z2 | x8 | x8 | x8 | z2 E2 D2 A2 | x8 | E2 z A F2 (3FF-[FA] | %18
 z E .[DFc]2 [DAc]2 [DAc]2 | [EG]2 [EG]2 .[B,G]2- .[B,EG]2 | x8 | x8 | x8 | x8 |] %24
V:4
 x8 | x8 | x8 | E,2 z2 z4 | x8 | x8 | x8 | B,,6 z2 | x8 | z2 B,,2 F,2 z2 | x8 | %11
 z2 B,,2[K:treble][K:bass] z2 D,2[K:treble] | x8 | x8 | x8 | z4 F,2 z2 | x8 | z2 B,2 z4 | %18
 z2 B,,2 z4 | z2 B,,2[K:treble][K:bass] z2 D,2[K:treble] | x8 | x8 | x8 | x8 |] %24
V:5
 x8 | x8 | x8 | x8 | x8 | x8 | x8 | x8 | x8 | x8 | x8 | %11
 x3[K:treble] x[K:bass] x8/3[K:treble] x4/3 | x8 | x8 | x8 | x8 | x8 | E,4 F,2 z2 | x8 | %19
 x3[K:treble] x[K:bass] x8/3[K:treble] x4/3 | x8 | x8 | x8 | x8 |] %24

